Src/Delivery/studio/bitmaps/src/mini/1/1.svg

<?xml version="1.0" encoding="UTF-8" standalone="no"?>
<svg
   xmlns:dc="http://purl.org/dc/elements/1.1/"
   xmlns:cc="http://creativecommons.org/ns#"
   xmlns:rdf="http://www.w3.org/1999/02/22-rdf-syntax-ns#"
   xmlns:svg="http://www.w3.org/2000/svg"
   xmlns="http://www.w3.org/2000/svg"
   xmlns:sodipodi="http://sodipodi.sourceforge.net/DTD/sodipodi-0.dtd"
   xmlns:inkscape="http://www.inkscape.org/namespaces/inkscape"
   height="100"
   viewBox="0 0 100 100"
   width="100"
   version="1.1"
   id="svg8"
   sodipodi:docname="1.svg"
   inkscape:version="1.0.2-2 (e86c870879, 2021-01-15)">
  <metadata
     id="metadata14">
    <rdf:RDF>
      <cc:Work
         rdf:about="">
        <dc:format>image/svg+xml</dc:format>
        <dc:type
           rdf:resource="http://purl.org/dc/dcmitype/StillImage" />
        <dc:title></dc:title>
      </cc:Work>
    </rdf:RDF>
  </metadata>
  <defs
     id="defs12" />
  <sodipodi:namedview
     pagecolor="#ffffff"
     bordercolor="#666666"
     borderopacity="1"
     objecttolerance="10"
     gridtolerance="10"
     guidetolerance="10"
     inkscape:pageopacity="0"
     inkscape:pageshadow="2"
     inkscape:window-width="2880"
     inkscape:window-height="1721"
     id="namedview10"
     showgrid="false"
     inkscape:zoom="10.08"
     inkscape:cx="50"
     inkscape:cy="50"
     inkscape:window-x="-11"
     inkscape:window-y="-11"
     inkscape:window-maximized="1"
     inkscape:current-layer="svg8" />
  <g
     id="g843">
    <path
       d="m 1,1.000115 h 98.000001 v 97.99989 H 1 Z"
       id="path2"
       style="fill:none;fill-opacity:1;stroke-width:37.0394" />
    <path
       d="M 28.923799,7.8305462 7.8475974,29.216711 28.331031,50.000245 7.8475974,70.785631 28.923799,92.170685 50,70.785631 71.076205,92.170685 92.152413,70.785631 71.668972,50.000245 92.152413,29.216711 71.076205,7.8305462 50,29.216711 Z"
       stroke="#114399"
       stroke-linecap="round"
       stroke-linejoin="round"
       stroke-width="9.79999"
       id="path4"
       style="fill:#ffffff;fill-opacity:1" />
  </g>
</svg>

<?xml version="1.0" encoding="UTF-8"?>
<svg width="100" height="100" version="1.1" viewBox="0 0 100 100" xmlns="http://www.w3.org/2000/svg">
 <path d="m1 1.0001h98v98h-98z" fill="none" stroke-width="37.039"/>
 <path d="m28.924 7.8305-21.076 21.386 20.483 20.784-20.483 20.785 21.076 21.385 21.076-21.385 21.076 21.385 21.076-21.385-20.483-20.785 20.483-20.784-21.076-21.386-21.076 21.386z" fill="#fff" stroke="#114399" stroke-linecap="round" stroke-linejoin="round" stroke-width="9.8"/>
</svg>
